X:21
T: NINA S FAHRET A BIERELE D RHIN NA
N: K0083
O: Europa, Mitteleuropa, Deutschland; Frankreich, Elsass
R: Kinder -, Wiegen - Lied
M: 6/8
L: 1/16
K: F
 | c6G6 | F3FF2G3GG2 | A6G6 |
c2c2c2G4G2 | A3GA2F6 |
c2c2c2G4G2 | A3GA2F6 |
F4G2A3AA2 | G2G2c2F4z2

@@@ Tune index: 7358
